2024/event/img/day1_pc.svg

<svg width="280" height="139" viewBox="0 0 280 139" fill="none" xmlns="http://www.w3.org/2000/svg">
<g clip-path="url(#clip0_3950_3701)">
<mask id="path-1-outside-1_3950_3701" maskUnits="userSpaceOnUse" x="55" y="39" width="167" height="78" fill="black">
<rect fill="white" x="55" y="39" width="167" height="78"/>
<path d="M56.16 111V101.88H71.712V52.728H58.944V45.72C65.664 44.568 70.272 42.84 74.4 40.344H82.752V101.88H96.576V111H56.16ZM113.374 61.144H156.51V115.48H150.046V67.224H119.582V115.672H113.374V61.144ZM117.598 83.032H152.734V88.984H117.598V83.032ZM117.534 105.432H152.798V111.512H117.534V105.432ZM180.638 75.736H216.67V81.496H180.638V75.736ZM180.638 90.776H216.67V96.536H180.638V90.776ZM180.638 105.816H216.67V111.704H180.638V105.816ZM176.35 60.76H220.766V115.928H214.366V66.712H182.43V115.928H176.35V60.76Z"/>
</mask>
<path d="M56.16 111V101.88H71.712V52.728H58.944V45.72C65.664 44.568 70.272 42.84 74.4 40.344H82.752V101.88H96.576V111H56.16ZM113.374 61.144H156.51V115.48H150.046V67.224H119.582V115.672H113.374V61.144ZM117.598 83.032H152.734V88.984H117.598V83.032ZM117.534 105.432H152.798V111.512H117.534V105.432ZM180.638 75.736H216.67V81.496H180.638V75.736ZM180.638 90.776H216.67V96.536H180.638V90.776ZM180.638 105.816H216.67V111.704H180.638V105.816ZM176.35 60.76H220.766V115.928H214.366V66.712H182.43V115.928H176.35V60.76Z" fill="white"/>
<path d="M56.16 111H55.16V112H56.16V111ZM56.16 101.88V100.88H55.16V101.88H56.16ZM71.712 101.88V102.88H72.712V101.88H71.712ZM71.712 52.728H72.712V51.728H71.712V52.728ZM58.944 52.728H57.944V53.728H58.944V52.728ZM58.944 45.72L58.775 44.7344L57.944 44.8768V45.72H58.944ZM74.4 40.344V39.344H74.1212L73.8826 39.4883L74.4 40.344ZM82.752 40.344H83.752V39.344H82.752V40.344ZM82.752 101.88H81.752V102.88H82.752V101.88ZM96.576 101.88H97.576V100.88H96.576V101.88ZM96.576 111V112H97.576V111H96.576ZM57.16 111V101.88H55.16V111H57.16ZM56.16 102.88H71.712V100.88H56.16V102.88ZM72.712 101.88V52.728H70.712V101.88H72.712ZM71.712 51.728H58.944V53.728H71.712V51.728ZM59.944 52.728V45.72H57.944V52.728H59.944ZM59.113 46.7056C65.9332 45.5364 70.6641 43.7715 74.9174 41.1997L73.8826 39.4883C69.8799 41.9085 65.3948 43.5996 58.775 44.7344L59.113 46.7056ZM74.4 41.344H82.752V39.344H74.4V41.344ZM81.752 40.344V101.88H83.752V40.344H81.752ZM82.752 102.88H96.576V100.88H82.752V102.88ZM95.576 101.88V111H97.576V101.88H95.576ZM96.576 110H56.16V112H96.576V110ZM113.374 61.144V60.144H112.374V61.144H113.374ZM156.51 61.144H157.51V60.144H156.51V61.144ZM156.51 115.48V116.48H157.51V115.48H156.51ZM150.046 115.48H149.046V116.48H150.046V115.48ZM150.046 67.224H151.046V66.224H150.046V67.224ZM119.582 67.224V66.224H118.582V67.224H119.582ZM119.582 115.672V116.672H120.582V115.672H119.582ZM113.374 115.672H112.374V116.672H113.374V115.672ZM117.598 83.032V82.032H116.598V83.032H117.598ZM152.734 83.032H153.734V82.032H152.734V83.032ZM152.734 88.984V89.984H153.734V88.984H152.734ZM117.598 88.984H116.598V89.984H117.598V88.984ZM117.534 105.432V104.432H116.534V105.432H117.534ZM152.798 105.432H153.798V104.432H152.798V105.432ZM152.798 111.512V112.512H153.798V111.512H152.798ZM117.534 111.512H116.534V112.512H117.534V111.512ZM113.374 62.144H156.51V60.144H113.374V62.144ZM155.51 61.144V115.48H157.51V61.144H155.51ZM156.51 114.48H150.046V116.48H156.51V114.48ZM151.046 115.48V67.224H149.046V115.48H151.046ZM150.046 66.224H119.582V68.224H150.046V66.224ZM118.582 67.224V115.672H120.582V67.224H118.582ZM119.582 114.672H113.374V116.672H119.582V114.672ZM114.374 115.672V61.144H112.374V115.672H114.374ZM117.598 84.032H152.734V82.032H117.598V84.032ZM151.734 83.032V88.984H153.734V83.032H151.734ZM152.734 87.984H117.598V89.984H152.734V87.984ZM118.598 88.984V83.032H116.598V88.984H118.598ZM117.534 106.432H152.798V104.432H117.534V106.432ZM151.798 105.432V111.512H153.798V105.432H151.798ZM152.798 110.512H117.534V112.512H152.798V110.512ZM118.534 111.512V105.432H116.534V111.512H118.534ZM180.638 75.736V74.736H179.638V75.736H180.638ZM216.67 75.736H217.67V74.736H216.67V75.736ZM216.67 81.496V82.496H217.67V81.496H216.67ZM180.638 81.496H179.638V82.496H180.638V81.496ZM180.638 90.776V89.776H179.638V90.776H180.638ZM216.67 90.776H217.67V89.776H216.67V90.776ZM216.67 96.536V97.536H217.67V96.536H216.67ZM180.638 96.536H179.638V97.536H180.638V96.536ZM180.638 105.816V104.816H179.638V105.816H180.638ZM216.67 105.816H217.67V104.816H216.67V105.816ZM216.67 111.704V112.704H217.67V111.704H216.67ZM180.638 111.704H179.638V112.704H180.638V111.704ZM176.35 60.76V59.76H175.35V60.76H176.35ZM220.766 60.76H221.766V59.76H220.766V60.76ZM220.766 115.928V116.928H221.766V115.928H220.766ZM214.366 115.928H213.366V116.928H214.366V115.928ZM214.366 66.712H215.366V65.712H214.366V66.712ZM182.43 66.712V65.712H181.43V66.712H182.43ZM182.43 115.928V116.928H183.43V115.928H182.43ZM176.35 115.928H175.35V116.928H176.35V115.928ZM180.638 76.736H216.67V74.736H180.638V76.736ZM215.67 75.736V81.496H217.67V75.736H215.67ZM216.67 80.496H180.638V82.496H216.67V80.496ZM181.638 81.496V75.736H179.638V81.496H181.638ZM180.638 91.776H216.67V89.776H180.638V91.776ZM215.67 90.776V96.536H217.67V90.776H215.67ZM216.67 95.536H180.638V97.536H216.67V95.536ZM181.638 96.536V90.776H179.638V96.536H181.638ZM180.638 106.816H216.67V104.816H180.638V106.816ZM215.67 105.816V111.704H217.67V105.816H215.67ZM216.67 110.704H180.638V112.704H216.67V110.704ZM181.638 111.704V105.816H179.638V111.704H181.638ZM176.35 61.76H220.766V59.76H176.35V61.76ZM219.766 60.76V115.928H221.766V60.76H219.766ZM220.766 114.928H214.366V116.928H220.766V114.928ZM215.366 115.928V66.712H213.366V115.928H215.366ZM214.366 65.712H182.43V67.712H214.366V65.712ZM181.43 66.712V115.928H183.43V66.712H181.43ZM182.43 114.928H176.35V116.928H182.43V114.928ZM177.35 115.928V60.76H175.35V115.928H177.35Z" fill="black" mask="url(#path-1-outside-1_3950_3701)"/>
<path d="M46.6667 70H280L233.333 139H0L46.6667 70Z" fill="#FF0084"/>
<path d="M56.16 111V101.88H71.712V52.728H58.944V45.72C65.664 44.568 70.272 42.84 74.4 40.344H82.752V101.88H96.576V111H56.16ZM113.374 61.144H156.51V115.48H150.046V67.224H119.582V115.672H113.374V61.144ZM117.598 83.032H152.734V88.984H117.598V83.032ZM117.534 105.432H152.798V111.512H117.534V105.432ZM180.638 75.736H216.67V81.496H180.638V75.736ZM180.638 90.776H216.67V96.536H180.638V90.776ZM180.638 105.816H216.67V111.704H180.638V105.816ZM176.35 60.76H220.766V115.928H214.366V66.712H182.43V115.928H176.35V60.76Z" fill="white"/>
</g>
<defs>
<clipPath id="clip0_3950_3701">
<rect width="280" height="139" fill="white"/>
</clipPath>
</defs>
</svg>

<svg xmlns="http://www.w3.org/2000/svg" width="280" height="139" fill="none" viewBox="0 0 280 139"><g clip-path="url(#a)"><mask id="b" width="167" height="78" x="55" y="39" fill="#000" maskUnits="userSpaceOnUse"><path fill="#fff" d="M55 39h167v78H55z"/><path d="M56.16 111v-9.12h15.55V52.73H58.94v-7.01c6.72-1.15 11.33-2.88 15.46-5.38h8.35v61.54h13.83V111zm57.21-49.86h43.14v54.34h-6.46V67.22h-30.47v48.45h-6.2zm4.23 21.9h35.13v5.94H117.6zm-.07 22.4h35.27v6.07h-35.27zm63.1-29.7h36.04v5.76h-36.03zm0 15.04h36.04v5.76h-36.03zm0 15.04h36.04v5.88h-36.03zm-4.28-45.06h44.42v55.17h-6.4V66.7h-31.94v49.22h-6.08z"/></mask><path fill="#fff" d="M56.16 111v-9.12h15.55V52.73H58.94v-7.01c6.72-1.15 11.33-2.88 15.46-5.38h8.35v61.54h13.83V111zm57.21-49.86h43.14v54.34h-6.46V67.22h-30.47v48.45h-6.2zm4.23 21.9h35.13v5.94H117.6zm-.07 22.4h35.27v6.07h-35.27zm63.1-29.7h36.04v5.76h-36.03zm0 15.04h36.04v5.76h-36.03zm0 15.04h36.04v5.88h-36.03zm-4.28-45.06h44.42v55.17h-6.4V66.7h-31.94v49.22h-6.08z"/><path fill="#000" d="M56.16 111h-1v1h1zm0-9.12v-1h-1v1zm15.55 0v1h1v-1zm0-49.15h1v-1h-1zm-12.77 0h-1v1h1zm0-7.01-.16-.99-.84.15v.84zm15.46-5.38v-1h-.28l-.24.15zm8.35 0h1v-1h-1zm0 61.54h-1v1h1zm13.83 0h1v-1h-1zm0 9.12v1h1v-1zm-39.42 0v-9.12h-2V111zm-1-8.12h15.55v-2H56.16zm16.55-1V52.73h-2v49.15zm-1-50.15H58.94v2h12.77zm-11.77 1v-7.01h-2v7zm-.83-6.02c6.82-1.17 11.55-2.94 15.8-5.51l-1.03-1.71c-4 2.42-8.49 4.11-15.1 5.24zm15.29-5.37h8.35v-2H74.4zm7.35-1v61.54h2V40.34zm1 62.54h13.83v-2H82.75zm12.83-1V111h2v-9.12zm1 8.12H56.16v2h40.42zm16.8-48.86v-1h-1v1zm43.13 0h1v-1h-1zm0 54.34v1h1v-1zm-6.46 0h-1v1h1zm0-48.26h1v-1h-1zm-30.47 0v-1h-1v1zm0 48.45v1h1v-1zm-6.2 0h-1v1h1zm4.22-32.64v-1h-1v1zm35.13 0h1v-1h-1zm0 5.95v1h1v-1zm-35.13 0h-1v1h1zm-.07 16.45v-1h-1v1zm35.27 0h1v-1h-1zm0 6.08v1h1v-1zm-35.27 0h-1v1h1zm-4.16-49.37h43.14v-2h-43.14zm42.14-1v54.34h2V61.14zm1 53.34h-6.46v2h6.46zm-5.46 1V67.22h-2v48.26zm-1-49.26h-30.47v2h30.47zm-31.47 1v48.45h2V67.22zm1 47.45h-6.2v2h6.2zm-5.2 1V61.14h-2v54.53zm3.22-31.64h35.13v-2H117.6zm34.13-1v5.95h2v-5.95zm1 4.95H117.6v2h35.13zm-34.13 1v-5.95h-2v5.95zm-1.07 17.45h35.27v-2h-35.27zm34.27-1v6.08h2v-6.08zm1 5.08h-35.27v2h35.27zm-34.27 1v-6.08h-2v6.08zm62.1-35.77v-1h-1v1zm36.04 0h1v-1h-1zm0 5.76v1h1v-1zm-36.03 0h-1v1h1zm0 9.28v-1h-1v1zm36.03 0h1v-1h-1zm0 5.76v1h1v-1zm-36.03 0h-1v1h1zm0 9.28v-1h-1v1zm36.03 0h1v-1h-1zm0 5.88v1h1v-1zm-36.03 0h-1v1h1zm-4.29-50.94v-1h-1v1zm44.42 0h1v-1h-1zm0 55.17v1h1v-1zm-6.4 0h-1v1h1zm0-49.22h1v-1h-1zm-31.94 0v-1h-1v1zm0 49.22v1h1v-1zm-6.08 0h-1v1h1zm4.29-39.2h36.03v-2h-36.03zm35.03-1v5.77h2v-5.76zm1 4.77h-36.03v2h36.03zm-35.03 1v-5.76h-2v5.76zm-1 10.28h36.03v-2h-36.03zm35.03-1v5.76h2v-5.76zm1 4.76h-36.03v2h36.03zm-35.03 1v-5.76h-2v5.76zm-1 10.28h36.03v-2h-36.03zm35.03-1v5.88h2v-5.88zm1 4.88h-36.03v2h36.03zm-35.03 1v-5.88h-2v5.88zm-5.29-49.94h44.42v-2h-44.42zm43.42-1v55.17h2V60.76zm1 54.17h-6.4v2h6.4zm-5.4 1V66.7h-2v49.22zm-1-50.22h-31.94v2h31.94zm-32.94 1v49.22h2V66.7zm1 48.22h-6.08v2h6.08zm-5.08 1V60.76h-2v55.17z" mask="url(#b)"/><path fill="#ff0084" d="M46.67 70H280l-46.67 69H0z"/><path fill="#fff" d="M56.16 111v-9.12h15.55V52.73H58.94v-7.01c6.72-1.15 11.33-2.88 15.46-5.38h8.35v61.54h13.83V111zm57.21-49.86h43.14v54.34h-6.46V67.22h-30.47v48.45h-6.2zm4.23 21.9h35.13v5.94H117.6zm-.07 22.4h35.27v6.07h-35.27zm63.1-29.7h36.04v5.76h-36.03zm0 15.04h36.04v5.76h-36.03zm0 15.04h36.04v5.88h-36.03zm-4.28-45.06h44.42v55.17h-6.4V66.7h-31.94v49.22h-6.08z"/></g><defs><clipPath id="a"><path fill="#fff" d="M0 0h280v139H0z"/></clipPath></defs></svg>
